!!!OTL: Ansinglied am ersten Mai.
!!!ARE: Europa, Mitteleuropa, Deutschland
!!!SCT: A0497B
!!!TXL: @@GSW
!!!YEM: Copyright 1995, estate of Helmut Schaffrath.
**kern	**text
*M3/8	*
*k[f#]	*
*G:	*
!LO:TX:a:t=Mäßig bewegt.	!
{8g	1._Der
=1	=1
8b	Mey-
8dd	-e_n
8cc	iſch
=2	=2
8b/	kom-
8g	-me_n,
8a	u
=3	=3
8b	das
8dd	iſch
8cc	ja
=4	=4
4a}	wahr!
{8g	es
=5	=5
8b	gruenet
8dd	.
8cc	jitʒ
=6	=6
8b/	Al-
8g	-les
8a	i
=7	=7
8b	Laub
16ddL	u_n
16ccJ	.
16aL	i
16f#J	.
=8	=8
4g}	Gras.
{8g	{J
=9	=9
(8b	Laub
8dd)	u_n
8cc	i
=10	=10
4a	Gras
(16g	ſy
16a)	der
=11	=11
8b	Blüeſtli
8dd	.
8cc	ſo
=12	=12
4a}	viel,
{8g	drum
=13	=13
8b	tan-
8dd	-ʒet
8cc\	ds_Ma-
=14	=14
8b/	-reye-
8g	-li
8a	im
=15	=15
4b/	Sei-
8a	-te-
=16	=16
4g}	-ſpiel.}
{8g	{Nu
=17	=17
(8b	tanʒ,
8dd)	.
8cc	nun
=18	=18
4a	tanʒ,
(16g	Ma-
16a)	.
=19	=19
8b	-reh-
8dd	-e-
8cc	-li
=20	=20
4a}	tanʒ!
{8g	du
=21	=21
8b	heſch
8dd	es
8cc\	ge-
=22	=22
8b/	-wun-
8g	-ne:
8a	ne
=23	=23
4b/	Ro-
8a	-ſe-
=24	=24
4g}	-chranʒ.}
==	==
!!!GTL: Einige Kinder-Reime
!! Kuhn, Sammlung von Schweizer - Kuehreihen und alten VL 1812 S. 42.
!!!ONB: ESAC (Essen Associative Code) Database: ALTDEU
!!!AMT: simple triple
!!!AIN: vox
!!!EED: Helmut Schaffrath
!!!EEV: 1.0
!!!URL-scan: https://rosdok.uni-rostock.de/mcrviewer/recordIdentifier/rosdok_ppn738218359/iview2/phys_0681.iview2?x=-1272.8135649766991&y=181.17121083382517&scale=0.3197610882076923&rotation=0&layout=singlePageLayout&logicalDiv=log_0018
!!!ENC: Anna Maria Matuszewska
!!!EEV: 2024/19/03
*-	*-
